app/assets/images/badges/profil-3-blanc.svg

<svg width="20" height="20" viewBox="0 0 20 20" fill="none" xmlns="http://www.w3.org/2000/svg">
<path d="M7.17036 4.33353C7.2837 4.33353 7.39148 4.36797 7.4937 4.43686C7.59592 4.50353 7.67814 4.59464 7.74036 4.7102C7.80259 4.82353 7.8337 4.94797 7.8337 5.08353C7.8337 5.21686 7.80259 5.34131 7.74036 5.45686C7.67814 5.57242 7.59592 5.66464 7.4937 5.73353C7.39148 5.8002 7.2837 5.83353 7.17036 5.83353H6.59036V6.46353C6.59036 6.52353 6.57259 6.57242 6.53703 6.61019C6.50148 6.64797 6.45481 6.66686 6.39703 6.66686C6.34148 6.66686 6.29592 6.64797 6.26036 6.61019C6.22481 6.57019 6.20703 6.52131 6.20703 6.46353V4.53686C6.20703 4.47908 6.22592 4.43131 6.2637 4.39353C6.3037 4.35353 6.35259 4.33353 6.41036 4.33353H7.17036ZM7.17036 5.45353C7.21259 5.45353 7.2537 5.43575 7.2937 5.4002C7.33592 5.36464 7.36925 5.31908 7.3937 5.26353C7.42036 5.20575 7.4337 5.14575 7.4337 5.08353C7.4337 5.02131 7.42036 4.96242 7.3937 4.90686C7.36925 4.84908 7.33592 4.80353 7.2937 4.7702C7.2537 4.73464 7.21259 4.71686 7.17036 4.71686H6.59036V5.45353H7.17036Z" fill="#FBF9FA"/>
<path d="M9.10883 4.8502C9.1755 4.8502 9.23105 4.86908 9.2755 4.90686C9.32216 4.94464 9.34549 4.98908 9.34549 5.0402C9.34549 5.10908 9.32772 5.16131 9.29216 5.19686C9.25661 5.2302 9.21438 5.24686 9.16549 5.24686C9.13216 5.24686 9.09438 5.23908 9.05216 5.22353C9.04549 5.22131 9.02994 5.21686 9.0055 5.2102C8.98327 5.20353 8.95883 5.2002 8.93216 5.2002C8.87438 5.2002 8.81883 5.21797 8.7655 5.25353C8.71216 5.28908 8.66772 5.34353 8.63216 5.41686C8.59883 5.48797 8.58216 5.57353 8.58216 5.67353V6.46353C8.58216 6.52131 8.56327 6.57019 8.52549 6.61019C8.48772 6.64797 8.43994 6.66686 8.38216 6.66686C8.32438 6.66686 8.27661 6.64797 8.23883 6.61019C8.20105 6.57019 8.18216 6.52131 8.18216 6.46353V5.08686C8.18216 5.02908 8.20105 4.98131 8.23883 4.94353C8.27661 4.90353 8.32438 4.88353 8.38216 4.88353C8.43994 4.88353 8.48772 4.90353 8.52549 4.94353C8.56327 4.98131 8.58216 5.02908 8.58216 5.08686V5.1302C8.63327 5.03908 8.70661 4.9702 8.80216 4.92353C8.89772 4.87464 8.99994 4.8502 9.10883 4.8502Z" fill="#FBF9FA"/>
<path d="M11.2659 5.77686C11.2659 5.95464 11.2259 6.11464 11.1459 6.25686C11.0659 6.39686 10.9559 6.50575 10.8159 6.58353C10.6782 6.66131 10.5259 6.70019 10.3593 6.70019C10.1904 6.70019 10.037 6.66131 9.89927 6.58353C9.76149 6.50575 9.6526 6.39686 9.5726 6.25686C9.4926 6.11464 9.4526 5.95464 9.4526 5.77686C9.4526 5.59908 9.4926 5.4402 9.5726 5.3002C9.6526 5.15797 9.76149 5.04797 9.89927 4.9702C10.037 4.8902 10.1904 4.8502 10.3593 4.8502C10.5259 4.8502 10.6782 4.8902 10.8159 4.9702C10.9559 5.04797 11.0659 5.15797 11.1459 5.3002C11.2259 5.4402 11.2659 5.59908 11.2659 5.77686ZM10.8659 5.77686C10.8659 5.66797 10.8426 5.57131 10.7959 5.48686C10.7515 5.4002 10.6904 5.33353 10.6126 5.28686C10.537 5.2402 10.4526 5.21686 10.3593 5.21686C10.2659 5.21686 10.1804 5.2402 10.1026 5.28686C10.027 5.33353 9.96594 5.4002 9.91927 5.48686C9.87483 5.57131 9.8526 5.66797 9.8526 5.77686C9.8526 5.88575 9.87483 5.98242 9.91927 6.06686C9.96594 6.15131 10.027 6.21686 10.1026 6.26353C10.1804 6.31019 10.2659 6.33353 10.3593 6.33353C10.4526 6.33353 10.537 6.31019 10.6126 6.26353C10.6904 6.21686 10.7515 6.15131 10.7959 6.06686C10.8426 5.98242 10.8659 5.88575 10.8659 5.77686Z" fill="#FBF9FA"/>
<path d="M12.4568 4.55353C12.3812 4.55353 12.3279 4.57575 12.2968 4.6202C12.2657 4.66242 12.2501 4.70908 12.2501 4.7602V4.91686H12.5535C12.6068 4.91686 12.6512 4.93464 12.6868 4.9702C12.7224 5.00353 12.7401 5.04686 12.7401 5.1002C12.7401 5.15353 12.7224 5.19797 12.6868 5.23353C12.6512 5.26686 12.6068 5.28353 12.5535 5.28353H12.2501V6.46353C12.2501 6.52131 12.2312 6.57019 12.1935 6.61019C12.1557 6.64797 12.1079 6.66686 12.0501 6.66686C11.9924 6.66686 11.9446 6.64797 11.9068 6.61019C11.869 6.57019 11.8501 6.52131 11.8501 6.46353V5.28353H11.6701C11.6168 5.28353 11.5724 5.26686 11.5368 5.23353C11.5012 5.19797 11.4835 5.15353 11.4835 5.1002C11.4835 5.04686 11.5012 5.00353 11.5368 4.9702C11.5724 4.93464 11.6168 4.91686 11.6701 4.91686H11.8501V4.76353C11.8501 4.59686 11.9068 4.46131 12.0201 4.35686C12.1357 4.25242 12.3012 4.2002 12.5168 4.2002C12.599 4.2002 12.6701 4.21686 12.7301 4.2502C12.7924 4.28353 12.8235 4.33464 12.8235 4.40353C12.8235 4.45686 12.8079 4.5002 12.7768 4.53353C12.7457 4.56686 12.7079 4.58353 12.6635 4.58353C12.6524 4.58353 12.6401 4.58242 12.6268 4.5802C12.6157 4.57797 12.6035 4.57575 12.5901 4.57353C12.5368 4.5602 12.4924 4.55353 12.4568 4.55353ZM13.3668 6.46353C13.3668 6.52131 13.3479 6.57019 13.3101 6.61019C13.2724 6.64797 13.2246 6.66686 13.1668 6.66686C13.109 6.66686 13.0612 6.64797 13.0235 6.61019C12.9857 6.57019 12.9668 6.52131 12.9668 6.46353V5.08686C12.9668 5.02908 12.9857 4.98131 13.0235 4.94353C13.0612 4.90353 13.109 4.88353 13.1668 4.88353C13.2246 4.88353 13.2724 4.90353 13.3101 4.94353C13.3479 4.98131 13.3668 5.02908 13.3668 5.08686V6.46353ZM13.1635 4.66686C13.0879 4.66686 13.0346 4.65464 13.0035 4.6302C12.9724 4.60575 12.9568 4.56242 12.9568 4.5002V4.43686C12.9568 4.37464 12.9735 4.33131 13.0068 4.30686C13.0401 4.28242 13.0935 4.2702 13.1668 4.2702C13.2446 4.2702 13.299 4.28242 13.3301 4.30686C13.3612 4.33131 13.3768 4.37464 13.3768 4.43686V4.5002C13.3768 4.56464 13.3601 4.60908 13.3268 4.63353C13.2957 4.65575 13.2412 4.66686 13.1635 4.66686Z" fill="#FBF9FA"/>
<path d="M14.2112 6.46353C14.2112 6.52131 14.1912 6.57019 14.1512 6.61019C14.1134 6.64797 14.0656 6.66686 14.0079 6.66686C13.9523 6.66686 13.9056 6.64797 13.8679 6.61019C13.8301 6.57019 13.8112 6.52131 13.8112 6.46353V4.40353C13.8112 4.34575 13.8301 4.29797 13.8679 4.2602C13.9079 4.2202 13.9568 4.2002 14.0145 4.2002C14.0701 4.2002 14.1168 4.2202 14.1545 4.2602C14.1923 4.29797 14.2112 4.34575 14.2112 4.40353V6.46353Z" fill="#FBF9FA"/>
<path fill-rule="evenodd" clip-rule="evenodd" d="M10 18.75C14.8325 18.75 18.75 14.8325 18.75 10C18.75 5.16751 14.8325 1.25 10 1.25C5.16751 1.25 1.25 5.16751 1.25 10C1.25 14.8325 5.16751 18.75 10 18.75ZM10 20C15.5228 20 20 15.5228 20 10C20 4.47715 15.5228 0 10 0C4.47715 0 0 4.47715 0 10C0 15.5228 4.47715 20 10 20Z" fill="#FBF9FA"/>
<path d="M10.3042 11.532C10.625 11.5437 10.908 11.637 11.153 11.812C11.4038 11.987 11.5963 12.2174 11.7305 12.5032C11.8646 12.7832 11.9317 13.0837 11.9317 13.4045C11.9317 13.8303 11.8355 14.2037 11.643 14.5245C11.4505 14.8395 11.1792 15.0816 10.8292 15.2507C10.4792 15.4199 10.0709 15.5045 9.60422 15.5045C9.39421 15.5045 9.18422 15.4782 8.97422 15.4257C8.76422 15.3732 8.58047 15.3032 8.42297 15.2157C8.20713 15.0991 8.09922 14.9416 8.09922 14.7432C8.09922 14.6032 8.1488 14.4749 8.24797 14.3582C8.34713 14.2416 8.46672 14.1832 8.60672 14.1832C8.72338 14.1832 8.8488 14.227 8.98297 14.3145C9.2338 14.507 9.51088 14.6032 9.81422 14.6032C9.99505 14.6032 10.1671 14.5595 10.3305 14.472C10.4938 14.3787 10.625 14.2474 10.7242 14.0782C10.8292 13.9032 10.8817 13.7049 10.8817 13.4832C10.8817 13.1682 10.7855 12.9232 10.593 12.7482C10.4063 12.5732 10.1788 12.4857 9.91047 12.4857C9.7938 12.4857 9.69172 12.4974 9.60422 12.5207C9.51672 12.5441 9.46422 12.5587 9.44672 12.5645C9.29505 12.6112 9.16963 12.6345 9.07046 12.6345C8.94213 12.6345 8.84005 12.5907 8.76422 12.5032C8.68838 12.4099 8.65047 12.2962 8.65047 12.162C8.65047 12.0803 8.66505 12.0074 8.69422 11.9432C8.72338 11.8791 8.77297 11.8091 8.84297 11.7332L10.1992 10.2545H8.46672C8.32672 10.2545 8.21005 10.2078 8.11672 10.1145C8.02338 10.0212 7.97672 9.90449 7.97672 9.76449C7.97672 9.63033 8.02338 9.51949 8.11672 9.43199C8.21005 9.33866 8.32672 9.29199 8.46672 9.29199H11.1442C11.3192 9.29199 11.4534 9.34158 11.5467 9.44074C11.64 9.53408 11.6867 9.65949 11.6867 9.81699C11.6867 9.95699 11.6167 10.097 11.4767 10.237L10.3042 11.532Z" fill="#FBF9FA"/>
</svg>

<svg width="20" height="20" fill="none" xmlns="http://www.w3.org/2000/svg"><path d="M7.17 4.334a.57.57 0 01.324.103.735.735 0 01.246.273.763.763 0 01.094.374.775.775 0 01-.094.373.763.763 0 01-.246.277.582.582 0 01-.324.1h-.58v.63c0 .06-.017.108-.053.146a.183.183 0 01-.14.057.18.18 0 01-.137-.057.213.213 0 01-.053-.146V4.537a.2.2 0 01.203-.203h.76zm0 1.12a.185.185 0 00.124-.054.425.425 0 000-.63.185.185 0 00-.124-.053h-.58v.737h.58zM9.109 4.85c.066 0 .122.02.166.057.047.038.07.082.07.133 0 .07-.017.121-.053.157a.179.179 0 01-.127.05.333.333 0 01-.113-.023 1.18 1.18 0 00-.046-.014.296.296 0 00-.24.043.399.399 0 00-.134.164.6.6 0 00-.05.257v.79a.206.206 0 01-.057.146.194.194 0 01-.143.057.194.194 0 01-.143-.057.206.206 0 01-.057-.146V5.087c0-.058.02-.106.057-.143a.189.189 0 01.143-.06c.058 0 .106.02.143.06a.194.194 0 01.057.143v.043a.495.495 0 01.22-.206.664.664 0 01.307-.074zM11.266 5.777c0 .178-.04.338-.12.48a.848.848 0 01-.33.327.913.913 0 01-.457.116.92.92 0 01-.46-.116.854.854 0 01-.326-.327.962.962 0 01-.12-.48c0-.178.04-.337.12-.477a.848.848 0 01.326-.33.9.9 0 01.46-.12c.167 0 .32.04.457.12.14.078.25.188.33.33.08.14.12.3.12.477zm-.4 0a.59.59 0 00-.07-.29.485.485 0 00-.437-.27.49.49 0 00-.256.07.516.516 0 00-.184.2.613.613 0 00-.066.29c0 .109.022.205.066.29a.49.49 0 00.44.267.49.49 0 00.437-.267.59.59 0 00.07-.29zM12.457 4.554c-.076 0-.13.022-.16.066a.23.23 0 00-.047.14v.157h.303a.18.18 0 01.134.053.17.17 0 01.053.13.18.18 0 01-.053.134.187.187 0 01-.133.05h-.304v1.18a.206.206 0 01-.056.146.194.194 0 01-.144.057.194.194 0 01-.143-.057.206.206 0 01-.057-.146v-1.18h-.18a.187.187 0 01-.133-.05.18.18 0 01-.054-.134.17.17 0 01.054-.13.18.18 0 01.133-.053h.18v-.153c0-.167.057-.303.17-.407.116-.105.281-.157.497-.157.082 0 .153.017.213.05a.163.163 0 01.093.154.183.183 0 01-.046.13.15.15 0 01-.113.05.225.225 0 01-.037-.004 1.1 1.1 0 00-.037-.006.569.569 0 00-.133-.02zm.91 1.91a.206.206 0 01-.057.146.194.194 0 01-.143.057.194.194 0 01-.143-.057.206.206 0 01-.057-.146V5.087c0-.058.019-.106.056-.143a.188.188 0 01.144-.06c.058 0 .105.02.143.06a.194.194 0 01.057.143v1.377zm-.204-1.797c-.075 0-.128-.012-.16-.037-.03-.024-.046-.068-.046-.13v-.063c0-.062.016-.106.05-.13.033-.025.087-.037.16-.037.078 0 .132.012.163.037.031.024.047.068.047.13V4.5c0 .065-.017.11-.05.134-.031.022-.086.033-.163.033zM14.211 6.464a.2.2 0 01-.203.203.19.19 0 01-.14-.057.206.206 0 01-.057-.146v-2.06a.2.2 0 01.203-.203c.056 0 .103.02.14.06a.194.194 0 01.057.143v2.06z" fill="#FBF9FA"/><path fill-rule="evenodd" clip-rule="evenodd" d="M10 18.75a8.75 8.75 0 100-17.5 8.75 8.75 0 000 17.5zM10 20c5.523 0 10-4.477 10-10S15.523 0 10 0 0 4.477 0 10s4.477 10 10 10z" fill="#FBF9FA"/><path d="M10.304 11.532c.321.012.604.105.849.28.25.175.443.405.577.691.135.28.202.58.202.902 0 .425-.097.799-.289 1.12a1.895 1.895 0 01-.814.726c-.35.169-.758.254-1.225.254a2.589 2.589 0 01-1.181-.29c-.216-.116-.324-.273-.324-.472 0-.14.05-.268.149-.385a.456.456 0 01.359-.175c.116 0 .242.044.376.132.25.192.528.288.831.288.181 0 .353-.043.517-.131a1.134 1.134 0 00.551-.989c0-.315-.096-.56-.289-.735a.961.961 0 00-.683-.262c-.116 0-.218.011-.306.035l-.157.043c-.152.047-.277.07-.377.07a.385.385 0 01-.306-.13.523.523 0 01-.114-.342c0-.082.015-.155.044-.219a.83.83 0 01.149-.21l1.356-1.479H8.467a.475.475 0 01-.49-.49c0-.134.046-.245.14-.332a.475.475 0 01.35-.14h2.677c.175 0 .31.05.403.149.093.093.14.218.14.376 0 .14-.07.28-.21.42l-1.173 1.295z" fill="#FBF9FA"/></svg>
